X:1
Q:1/4=100
L:1/8
M:1/4
K:C clef=G2
V:1
%%MIDI program 74
D2|G2-|GA|G2|
G2|A2-|A2||d2-|
dc|B2-|B2||A2|
B2|c2-|c2||B2-|
B2|A2-|AG|A2|
B2|G2-|G2|z2|
D2|G2-|GA|G2|
G2|A2-|A2|d2-|
dc|B2-|B2|A2|
B2|c2-|c2|B2-|
B2|A2-|AG|A2|
B2|G2-|G2|z2|
D2|G2|A2|B2|
c2|d2-|de|d2|
c2|B2-|B2||A2|
D2|G2|A2|B2|
c2|d2-|d2|ed|
cB|A2-|A2-|A2|
D2|G2-|GA|G2|
G2|A2-|A2||d2-|
dc|B2-|B2|A2|
B2|c2-|c2|B2-|
B2||A2-|AG|A2|
B2|G2-|G2||
L:1/8
M:1/4
K:C clef=G2
V:2
%%MIDI program 1
D2|[B,-D-G-]2|[B,DG][CA]|[B,DG]2|
[DG]2|[D-^F-A-]2|[D^FA]2||[D-A-d-]2|
[DAd][DAc]|[D-G-B-]2|[DGB]2||[DA]2|
[DGB]2|[E-G-c-]2|[EGc]2||[D-G-B-]2|
[DGB]2|[D-^F-A-]2|[D^FA][DEG]|[D^FA]2|
[D^FB]2|[B,-D-G-]2|[B,DG]2|z2|
D2|[B,-D-G-]2|[B,DG][CA]|[B,DG]2|
[DG]2|[D-^F-A-]2|[D^FA]2|[D-A-d-]2|
[DAd][DAc]|[D-G-B-]2|[DGB]2|[D^FA]2|
[FGB]2|[E-G-c-]2|[EGc]2|[D-G-B-]2|
[DGB]2|[D-^F-A-]2|[D^FA][DEG]|[D^FA]2|
[D^FB]2|[B,-D-G-]2|[B,DG]2|z2|
D2|[B,DG]2|[D^FA]2|[DGB]2|
[Gc]2|[G-d-]2|[Gd][Ge]|[Gd]2|
[D^Fc]2|[D-G-B-]2|[DGB]2||[D^FA]2|
D2|[DG]2|[^FDA]2|[DGB]2|
[Gc]2|[G-d-]2|[Gd]2|[Gce][Bd]|
[Ac][GB]|[^F-A-]2|[^F-A-]2|[^FA]2|
D2|[B,-D-G-]2|[B,DG][B,-D-A]|[B,DG]2|
[B,DG]2|[D-A-]2|[DA]2||[A-D-d-]2|
[ADd][ADc]|[D-G-B-]2|[DGB]2|[DA]2|
[GDB]2|[c-EG]2|[cDA]2|[D-G-B-]2|
[DGB]2||[D-A-]2|[DA][DEG]|[D^FA]2|
[^FDB]2|[B,-D-G-]2|[B,DG]2||
L:1/8
M:1/4
K:C clef=F4
V:3
%%MIDI program 1
D,2|G,,2-|G,,2-|G,,2|
|
B,,2|D,2-|D,2||^F,2-|
^F,2|G,2-|G,2||^F,2|
G,2|C,2-|C,2||G,,2-|
G,,2|D,2-|D,2-|D,2|
|
D,2|B,,2-|B,,2|z2|
D,2|G,,2-|G,,2-|G,,2|
|
B,,2|D,2|E,2|^F,2|
D,2|G,2|G,,2-|G,,2|
G,2|G,,2|G,2|G,,2|
B,,2|D,2-|D,2-|D,2|
|
D,2|[G,,-G,-]2|[G,,G,]2|z2|
z2|z2|D,2|G,2|
A,2|B,2|C2|B,2|
A,2|G,2|B,2|D2|
D,C,|B,,2-|B,,D,|G,2|
A,2|B,2|B,,2|C,2-|
C,^C,|D,2-|D,2-|D,2|
D,2|G,,2|B,,2|D,2|
G,2|^F,2|D,2|E,2|
^F,2|G,2|G,,2|^F,,2|
G,,2|E,,2|^F,,2|G,,2|
B,,2|D,2|D,,2|[D,,-D,-]2|
[D,,D,]2|[G,,-D,-]2|[G,,D,]2||


